dist/images/icons/star.svg

<svg width="24" height="22" viewBox="0 0 24 22" fill="none" xmlns="http://www.w3.org/2000/svg">
<path d="M5.41598 21.9175C4.83698 22.2079 4.17998 21.699 4.29698 21.0493L5.54198 14.1122L0.25748 9.19019C-0.23602 8.72968 0.0204801 7.88784 0.68198 7.79691L8.02898 6.77614L11.305 0.430084C11.6005 -0.141897 12.4 -0.141897 12.6955 0.430084L15.9715 6.77614L23.3185 7.79691C23.98 7.88784 24.2365 8.72968 23.743 9.19019L18.4585 14.1122L19.7035 21.0493C19.8205 21.699 19.1635 22.2079 18.5845 21.9175L11.998 18.6088L5.41448 21.9175H5.41598Z" fill="black"/>
</svg>

<svg width="24" height="22" fill="none" xmlns="http://www.w3.org/2000/svg"><path d="M5.416 21.918c-.579.29-1.236-.219-1.119-.869l1.245-6.937L.257 9.19C-.236 8.73.02 7.888.682 7.797l7.347-1.02L11.305.43a.778.778 0 011.39 0l3.277 6.346 7.347 1.02c.661.092.918.934.424 1.394l-5.284 4.922 1.244 6.937c.117.65-.54 1.159-1.119.869l-6.586-3.31-6.584 3.31h.002z" fill="#000"/></svg>
